X: 283
T: Dennis Doody's
M:2/4
L:1/16
D:Donal Lunny - Donal Lunny
R:polka
K:Edor
"Em" G2E2 E2D2 |  B,2E2 E2G2 | "D" FGAF D3E | F2G2 A2BA |
"Em" G2E2 E2D2 | B,2E2 E2F2 | "G" G2A2 B3A | "D" G2F2 d4 :|
"Em" B2e2 efed | B2e2 e2d2 | "Bm" Bcd2 e2f2 | "G" g4 e2f2 |
"G"g4 "D"f2gf| "Em"e2B2 B2A2 | B2E2 E3F | "G" G2A2 B2A2 :|

